X: 14056
T: Fred Picknell's
R: march
M: 
K: Gmajor
M:2/4
|:G2 d2|dc/B/ A/G/A/B/|cg gf/e/|d>c Bg/f/|
ed/c/ B/c/d|AG/A/ Be/d/|c/B/A/G/ E>D|D4:|
D2 dA/B/|c/d/B/c/ AB/A/|Gd/4e/4f/ gf/e/|d/4e/4d/c/d/ Bb/a/|
gg/f/ e/f/g/e/|a/g/f/e/ d/B/g/f/|e/d/c/B/ A>G|G4||
|:G2 d2|dc/B/ A/G/A/B/|cd/4e/4f/ gf/e/|dd/c/ Bg/f/|
ed/c/ B/c/d|AB/c/ Be/d/|c/B/A/G/ E>D|D4:|
D2 dA/B/|c/d/B/c/ AB/A/|Gg gf/e/|d/e/c/d/ Bb/a/|
gg/f/ e/f/g/e/|a/g/f/e/ dg/f/|e/d/c/B/ Ad|G2- GE|
Dd dA/B/|c/d/B/c/ AB/A/|G/A/4B/4d/4e/4f/ gf/e/|d/4e/4d/c/d/ Bb/a/|
gg/f/ e/f/g/e/|a/g/f/e/ d/B/g/f/|e/d/c/B/ A>G|G4||

